X:627
T:Miss Fleming of Killiechassie
R:Reel
C:"D. Mc. K."
B:The Athole Collection
M:C|
L:1/8
K:A
A,2 A,C A2 Ac|ecAc BFFB|A,/A,/A, A,C ABce|fdBe cA A2|A,2 A,C A2 Ac|
ecAc BFFB|defg aefd|deBc A2A||cdaf ecAc|dbcA BFFB|cefa eaca|BFFB A2 Ae|
ceaf ecAc|dbcA BFFB|cefg aefd|caBg a2a2||

